app/images/icons/truck.svg

<svg width="30" height="24" viewBox="0 0 30 24" fill="none" xmlns="http://www.w3.org/2000/svg">
<path d="M15.9937 4.63144H0V12.0939H15.9937V4.63144Z" fill="white"/>
<path d="M11.2129 0.0751953H4.80042V3.09394H11.2129V0.0751953Z" fill="white"/>
<path d="M7.8001 23.9252C9.66406 23.9252 11.1751 22.4142 11.1751 20.5502C11.1751 18.6862 9.66406 17.1752 7.8001 17.1752C5.93615 17.1752 4.4251 18.6862 4.4251 20.5502C4.4251 22.4142 5.93615 23.9252 7.8001 23.9252Z" fill="white"/>
<path d="M24.8258 23.9252C26.6898 23.9252 28.2008 22.4142 28.2008 20.5502C28.2008 18.6862 26.6898 17.1752 24.8258 17.1752C22.9619 17.1752 21.4508 18.6862 21.4508 20.5502C21.4508 22.4142 22.9619 23.9252 24.8258 23.9252Z" fill="white"/>
<path d="M24.825 15.5063C25.6903 15.507 26.5407 15.7318 27.2932 16.1589C28.0458 16.5861 28.6748 17.2011 29.1187 17.9438C29.537 15.8821 29.8312 13.7971 30 11.7001C29.85 11.0063 25.35 3.50634 25.35 3.50634H17.6062V13.6313H0V19.5938H2.85C3.05354 18.4288 3.66156 17.3729 4.56708 16.612C5.4725 15.851 6.61729 15.4338 7.8 15.4338C8.98271 15.4338 10.1276 15.851 11.033 16.612C11.9384 17.3729 12.5465 18.4288 12.75 19.5938H19.875C20.0971 18.4437 20.7125 17.4068 21.6157 16.6609C22.519 15.9151 23.6536 15.5069 24.825 15.5063ZM20.0625 5.98134H23.9625L26.9062 11.1563H20.0625V5.98134Z" fill="white"/>
</svg>

<svg width="30" height="24" fill="none" xmlns="http://www.w3.org/2000/svg"><path d="M15.994 4.631H0v7.463h15.994V4.63zM11.213.075H4.8v3.019h6.413V.075zM7.8 23.925a3.375 3.375 0 100-6.75 3.375 3.375 0 000 6.75zm17.026 0a3.375 3.375 0 100-6.75 3.375 3.375 0 000 6.75z" fill="#fff"/><path d="M24.825 15.506a5.009 5.009 0 014.294 2.438A52.76 52.76 0 0030 11.7c-.15-.694-4.65-8.194-4.65-8.194h-7.744v10.125H0v5.963h2.85a5.024 5.024 0 019.9 0h7.125a5.044 5.044 0 014.95-4.088zm-4.762-9.525h3.9l2.943 5.175h-6.843V5.981z" fill="#fff"/></svg>
